COLOR/action 16/16/package-downgrade.svg

<svg height="16" width="16" xmlns="http://www.w3.org/2000/svg" xmlns:xlink="http://www.w3.org/1999/xlink"><filter id="a" color-interpolation-filters="sRGB" height="1.019945" width="1.030125" x="-.015062" y="-.009973"><feGaussianBlur stdDeviation=".09265347"/></filter><path d="m5.3261719 0c-1.67759.0195-2.9064963-.04015813-3.9101563.51367188-.50182995.27685999-.89762746.74519812-1.11718748 1.33007812-.21956.58488-.29882812 1.27944-.29882812 2.15625v8c0 .87681.07924813 1.57137.29882812 2.15625.21956002.58488.61535753 1.053218 1.11718748 1.330078 1.00366.55376 2.2325663.494242 3.9101563.513672h.00391 5.3398441.0039c1.67759-.0195 2.904543.04016 3.908203-.513672.50183-.27686.897628-.745198 1.117188-1.330078.219984-.58488.300783-1.27944.300783-2.15625v-8c0-.87681-.079248-1.57136-.298828-2.15625-.21955-.58488-.615358-1.05319813-1.117188-1.33007812-1.00366-.55379-2.232556-.49431188-3.910156-.51367188h-.0039-2.0039064-3.3359375z" fill="#fb7c38"/><path d="m5.3261719 0c-1.67759.0195-2.9064963-.04015813-3.9101563.51367188-.50182992.27685998-.89762746.74519812-1.11718748 1.33007812-.21956.58488-.29882812 1.27944-.29882812 2.15625v.5c0-.87681.07926812-1.57137.29882812-2.15625.21956003-.58488.61535756-1.0532181 1.11718748-1.3300781 1.00366-.55383005 2.2325663-.4941719 3.9101563-.5136719h.00391 3.3359375 2.0039066.0039c1.6776.01936 2.906496-.0401182 3.910156.5136719.50183.27688.897638.7451981 1.117188 1.3300781.219582.58489.29883 1.27944.29883 2.15625v-.5c0-.87681-.079248-1.57136-.298828-2.15625-.21955-.58488-.615358-1.05319814-1.117188-1.33007812-1.00366-.55379-2.232556-.49431188-3.910156-.51367188h-.0039-2.0039064-3.3359375z" fill="#fff" opacity=".3"/><path d="m10.673828 16c1.67759-.0195 2.906496.04016 3.910156-.513672.50183-.27686.897628-.745198 1.117188-1.330078s.298828-1.27944.298828-2.15625v-.5c0 .87681-.07927 1.57137-.298828 2.15625-.21956.58488-.615358 1.053218-1.117188 1.330078-1.00366.55383-2.232566.494172-3.910156.513672h-.0039-3.3359374-2.0039064-.0039c-1.67761-.01936-2.906506.04012-3.910166-.513672-.50183-.27688-.897638-.745198-1.117188-1.330078-.2195822-.58489-.2988302-1.27944-.2988302-2.15625v.5c0 .87681.079248 1.57136.298828 2.15625.21955.58488.615358 1.053198 1.117188 1.330078 1.00366.55379 2.232556.494312 3.910156.513672h.0039 2.0039064 3.3359376z" opacity=".2"/><g enable-background="new" transform="matrix(-.3481961 0 0 -.3481961 128.033732 36.884319)"><path d="m344.81833 72.090831c3.94595 5.644425 5.96867 11.583914 7.29357 14.258218h-4.47524v8.03988h-5.63666v-8.03988h-4.65139c1.32433-2.674143 3.52376-8.613739 7.46972-14.258218z" filter="url(#a)" opacity=".1"/><path d="m344.81833 71.741782c3.94595 5.644425 5.96867 11.583914 7.29357 14.258218h-4.47524v8.03988h-5.63666v-8.03988h-4.65139c1.32433-2.674143 3.52376-8.613739 7.46972-14.258218z" fill="#fff"/></g></svg>

<?xml version="1.0" encoding="UTF-8" standalone="no"?>
<svg
   xmlns:dc="http://purl.org/dc/elements/1.1/"
   xmlns:cc="http://creativecommons.org/ns#"
   xmlns:rdf="http://www.w3.org/1999/02/22-rdf-syntax-ns#"
   xmlns:svg="http://www.w3.org/2000/svg"
   xmlns="http://www.w3.org/2000/svg"
   xmlns:sodipodi="http://sodipodi.sourceforge.net/DTD/sodipodi-0.dtd"
   xmlns:inkscape="http://www.inkscape.org/namespaces/inkscape"
   height="16"
   width="16"
   version="1.1"
   id="svg4"
   sodipodi:docname="package-downgrade.svg"
   inkscape:version="0.92.4 (5da689c313, 2019-01-14)">
  <metadata
     id="metadata10">
    <rdf:RDF>
      <cc:Work
         rdf:about="">
        <dc:format>image/svg+xml</dc:format>
        <dc:type
           rdf:resource="http://purl.org/dc/dcmitype/StillImage" />
      </cc:Work>
    </rdf:RDF>
  </metadata>
  <defs
     id="defs8">
    <filter
       inkscape:collect="always"
       style="color-interpolation-filters:sRGB"
       id="filter10952"
       x="-0.015062248"
       width="1.0301245"
       y="-0.0099725248"
       height="1.019945">
      <feGaussianBlur
         inkscape:collect="always"
         stdDeviation="0.09265347"
         id="feGaussianBlur10954" />
    </filter>
  </defs>
  <sodipodi:namedview
     pagecolor="#ffffff"
     bordercolor="#808080"
     borderopacity="1"
     objecttolerance="10"
     gridtolerance="10"
     guidetolerance="10"
     inkscape:pageopacity="0"
     inkscape:pageshadow="2"
     inkscape:window-width="1920"
     inkscape:window-height="1016"
     id="namedview6"
     showgrid="false"
     inkscape:zoom="14.75"
     inkscape:cx="8"
     inkscape:cy="8"
     inkscape:window-x="0"
     inkscape:window-y="27"
     inkscape:window-maximized="1"
     inkscape:current-layer="svg4" />
  <g
     id="g839">
    <path
       sodipodi:nodetypes="ccsssccccccccssccccccc"
       style="fill:#fb7c38;fill-opacity:1"
       inkscape:connector-curvature="0"
       id="path2-3"
       d="M 5.3261719,0 C 3.6485819,0.0195 2.4196756,-0.04015813 1.4160156,0.51367188 0.91418565,0.79053187 0.51838814,1.25887 0.29882812,1.84375 0.07926812,2.42863 0,3.12319 0,4 v 8 c 0,0.87681 0.07924813,1.57137 0.29882812,2.15625 0.21956002,0.58488 0.61535753,1.053218 1.11718748,1.330078 1.00366,0.55376 2.2325663,0.494242 3.9101563,0.513672 h 0.00391 5.3398441 0.0039 c 1.67759,-0.0195 2.904543,0.04016 3.908203,-0.513672 0.50183,-0.27686 0.897628,-0.745198 1.117188,-1.330078 C 15.919201,13.57137 16,12.87681 16,12 V 4 C 16,3.12319 15.920752,2.42864 15.701172,1.84375 15.481622,1.25887 15.085814,0.79055187 14.583984,0.51367188 13.580324,-0.04011812 12.351428,0.01936 10.673828,0 h -0.0039 -2.0039064 -3.3359375 z" />
    <path
       sodipodi:nodetypes="ccsscscccccccccsccccccc"
       inkscape:connector-curvature="0"
       style="opacity:0.3;fill:#ffffff;fill-opacity:1"
       id="path819"
       d="M 5.3261719,0 C 3.6485819,0.0195 2.4196756,-0.04015813 1.4160156,0.51367188 0.91418568,0.79053186 0.51838814,1.25887 0.29882812,1.84375 0.07926812,2.42863 0,3.12319 0,4 V 4.5 C 0,3.62319 0.07926812,2.92863 0.29882812,2.34375 0.51838815,1.75887 0.91418568,1.2905319 1.4160156,1.0136719 2.4196756,0.45984185 3.6485819,0.5195 5.3261719,0.5 h 0.00391 3.3359375 2.0039066 0.0039 c 1.6776,0.01936 2.906496,-0.0401182 3.910156,0.5136719 C 15.085812,1.2905519 15.48162,1.75887 15.70117,2.34375 15.920752,2.92864 16,3.62319 16,4.5 V 4 C 16,3.12319 15.920752,2.42864 15.701172,1.84375 15.481622,1.25887 15.085814,0.79055186 14.583984,0.51367188 13.580324,-0.04011812 12.351428,0.01936 10.673828,0 h -0.0039 -2.0039064 -3.3359375 z" />
    <path
       d="m 10.673828,16 c 1.67759,-0.0195 2.906496,0.04016 3.910156,-0.513672 0.50183,-0.27686 0.897628,-0.745198 1.117188,-1.330078 C 15.920732,13.57137 16,12.87681 16,12 v -0.5 c 0,0.87681 -0.07927,1.57137 -0.298828,2.15625 -0.21956,0.58488 -0.615358,1.053218 -1.117188,1.330078 -1.00366,0.55383 -2.232566,0.494172 -3.910156,0.513672 h -0.0039 -3.3359374 -2.0039064 -0.0039 C 3.6485742,15.48064 2.4196782,15.54012 1.4160182,14.986328 0.9141882,14.709448 0.5183802,14.24113 0.2988302,13.65625 0.079248,13.07136 0,12.37681 0,11.5 V 12 c 0,0.87681 0.079248,1.57136 0.298828,2.15625 0.21955,0.58488 0.615358,1.053198 1.117188,1.330078 C 2.419676,16.040118 3.648572,15.98064 5.326172,16 h 0.0039 2.0039064 3.3359376 z"
       id="path1188"
       style="opacity:0.2;fill:#000000;fill-opacity:1"
       inkscape:connector-curvature="0"
       sodipodi:nodetypes="ccsscscccccccccsccccccc" />
    <g
       transform="rotate(-180,19.322035,7.3850152)"
       id="g850">
      <g
         style="display:inline;enable-background:new"
         transform="matrix(0.3481961,0,0,0.3481961,-89.389662,-22.114289)"
         id="g12559">
        <path
           id="path12555"
           d="m 344.81833,72.090831 c 3.94595,5.644425 5.96867,11.583914 7.29357,14.258218 h -4.47524 v 8.03988 H 342 v -8.03988 h -4.65139 c 1.32433,-2.674143 3.52376,-8.613739 7.46972,-14.258218 z"
           style="color:#000000;font-style:normal;font-variant:normal;font-weight:normal;font-stretch:normal;font-size:medium;line-height:normal;font-family:sans-serif;font-variant-ligatures:normal;font-variant-position:normal;font-variant-caps:normal;font-variant-numeric:normal;font-variant-alternates:normal;font-feature-settings:normal;text-indent:0;text-align:start;text-decoration:none;text-decoration-line:none;text-decoration-style:solid;text-decoration-color:#000000;letter-spacing:normal;word-spacing:normal;text-transform:none;writing-mode:lr-tb;direction:ltr;text-orientation:mixed;dominant-baseline:auto;baseline-shift:baseline;text-anchor:start;white-space:normal;shape-padding:0;clip-rule:nonzero;display:inline;overflow:visible;visibility:visible;opacity:0.1;isolation:auto;mix-blend-mode:normal;color-interpolation:sRGB;color-interpolation-filters:linearRGB;solid-color:#000000;solid-opacity:1;vector-effect:none;fill:#000000;fill-opacity:1;fill-rule:nonzero;stroke:none;stroke-width:1.37413836;stroke-linecap:butt;stroke-linejoin:miter;stroke-miterlimit:4;stroke-dasharray:none;stroke-dashoffset:0;stroke-opacity:1;marker:none;filter:url(#filter10952);color-rendering:auto;image-rendering:auto;shape-rendering:auto;text-rendering:auto;enable-background:accumulate"
           inkscape:connector-curvature="0"
           sodipodi:nodetypes="cccccccc" />
        <path
           id="path12557"
           d="M 344.81833,71.741782 C 348.76428,77.386207 350.787,83.325696 352.1119,86 h -4.47524 v 8.03988 H 342 V 86 h -4.65139 c 1.32433,-2.674143 3.52376,-8.613739 7.46972,-14.258218 z"
           style="color:#000000;font-style:normal;font-variant:normal;font-weight:normal;font-stretch:normal;font-size:medium;line-height:normal;font-family:sans-serif;font-variant-ligatures:normal;font-variant-position:normal;font-variant-caps:normal;font-variant-numeric:normal;font-variant-alternates:normal;font-feature-settings:normal;text-indent:0;text-align:start;text-decoration:none;text-decoration-line:none;text-decoration-style:solid;text-decoration-color:#000000;letter-spacing:normal;word-spacing:normal;text-transform:none;writing-mode:lr-tb;direction:ltr;text-orientation:mixed;dominant-baseline:auto;baseline-shift:baseline;text-anchor:start;white-space:normal;shape-padding:0;clip-rule:nonzero;display:inline;overflow:visible;visibility:visible;opacity:1;isolation:auto;mix-blend-mode:normal;color-interpolation:sRGB;color-interpolation-filters:linearRGB;solid-color:#000000;solid-opacity:1;vector-effect:none;fill:#ffffff;fill-opacity:1;fill-rule:nonzero;stroke:none;stroke-width:1.37413836;stroke-linecap:butt;stroke-linejoin:miter;stroke-miterlimit:4;stroke-dasharray:none;stroke-dashoffset:0;stroke-opacity:1;marker:none;color-rendering:auto;image-rendering:auto;shape-rendering:auto;text-rendering:auto;enable-background:accumulate"
           inkscape:connector-curvature="0"
           sodipodi:nodetypes="cccccccc" />
      </g>
    </g>
  </g>
</svg>
